static/img/haqq-icon.svg

<svg width="50" height="50" viewBox="0 0 50 50" fill="none" xmlns="http://www.w3.org/2000/svg">
<g clip-path="url(#clip0_923_2106)">
<mask id="mask0_923_2106" style="mask-type:luminance" maskUnits="userSpaceOnUse" x="0" y="0" width="50" height="50">
<path d="M50 0H0V50H50V0Z" fill="white"/>
</mask>
<g mask="url(#mask0_923_2106)">
<path d="M25 50C38.807 50 50 38.807 50 25C50 11.1929 38.807 0 25 0C11.1929 0 0 11.1929 0 25C0 38.807 11.1929 50 25 50Z" fill="url(#paint0_linear_923_2106)"/>
<path fill-rule="evenodd" clip-rule="evenodd" d="M25 7.03125C29.9619 7.03125 34.4541 9.04273 37.7059 12.2946C40.9188 15.5076 42.9207 19.9328 42.968 24.8244V24.8344L42.9684 24.901L42.9688 25L42.9672 25.1656V25.1766C42.9207 30.0682 40.9187 34.4924 37.7053 37.7059C34.4541 40.9574 29.9623 42.9688 25 42.9688C20.0381 42.9688 15.5458 40.9574 12.2942 37.7055C9.04262 34.4535 7.03125 29.9609 7.03125 24.999C7.03125 20.0371 9.04262 15.545 12.2942 12.2936C15.5458 9.0418 20.0381 7.03125 25 7.03125ZM35.3277 17.3586C36.0088 17.3586 36.6697 17.4484 37.299 17.6153C35.4461 15.8168 32.9188 14.7096 30.1326 14.7096C27.2908 14.7096 24.7182 15.8611 22.8564 17.7234C20.9943 19.5854 19.8426 22.1586 19.8426 25C19.8426 27.8414 20.9943 30.4146 22.8564 32.2762C24.7186 34.1385 27.2914 35.29 30.1326 35.29C32.9188 35.29 35.4465 34.1822 37.299 32.3842C36.6703 32.5516 36.0098 32.641 35.3285 32.641C33.2189 32.641 31.3082 31.7855 29.926 30.4029C28.5432 29.0201 27.6879 27.1096 27.6879 24.9996C27.6879 22.8896 28.5432 20.9789 29.926 19.5963C31.3072 18.2145 33.2172 17.3586 35.3277 17.3586ZM38.9299 21.3975C38.0078 20.476 36.7346 19.9055 35.3271 19.9055C33.9203 19.9055 32.6467 20.476 31.7244 21.3975C30.8023 22.3195 30.2326 23.5932 30.2326 25.0004C30.2326 26.4076 30.8033 27.6814 31.7244 28.6035C32.6467 29.525 33.9199 30.0955 35.3271 30.0955C36.7346 30.0955 38.0078 29.525 38.9299 28.6035C39.8512 27.6814 40.4219 26.4076 40.4219 25.0004L40.4211 24.9348C40.4043 23.5535 39.8371 22.3049 38.9299 21.3975ZM30.1316 12.1628C31.7322 12.1628 33.2635 12.4555 34.6768 12.9909C32.0307 10.8563 28.6643 9.57809 24.9996 9.57809C20.7414 9.57809 16.8852 11.3045 14.094 14.0949C11.3037 16.8852 9.57734 20.7412 9.57734 25C9.57734 29.2592 11.3032 33.1148 14.094 35.9055C16.8848 38.6959 20.7404 40.4223 24.9996 40.4223C28.6646 40.4223 32.0301 39.1441 34.6768 37.0092C33.2635 37.5445 31.7322 37.8373 30.1316 37.8373C26.5873 37.8373 23.3773 36.4004 21.0549 34.0773C18.7323 31.7545 17.2951 28.5451 17.2951 25.0004C17.2951 21.4559 18.7323 18.246 21.0549 15.923C23.3773 13.5996 26.5873 12.1628 30.1316 12.1628Z" fill="white"/>
</g>
</g>
<defs>
<linearGradient id="paint0_linear_923_2106" x1="-0.391691" y1="49.0977" x2="48.7914" y2="2.42103" gradientUnits="userSpaceOnUse">
<stop stop-color="#04BF77"/>
<stop offset="0.612453" stop-color="#04D082"/>
<stop offset="1" stop-color="#04D484"/>
</linearGradient>
<clipPath id="clip0_923_2106">
<rect width="50" height="50" fill="white"/>
</clipPath>
</defs>
</svg>

<svg xmlns="http://www.w3.org/2000/svg" width="50" height="50" fill="none"><g clip-path="url(#a)"><mask id="b" width="50" height="50" x="0" y="0" maskUnits="userSpaceOnUse" style="mask-type:luminance"><path fill="#fff" d="M50 0H0v50h50z"/></mask><g mask="url(#b)"><path fill="url(#c)" d="M25 50c13.807 0 25-11.193 25-25S38.807 0 25 0 0 11.193 0 25s11.193 25 25 25"/><path fill="#fff" fill-rule="evenodd" d="M25 7.031c4.962 0 9.454 2.012 12.706 5.264a17.92 17.92 0 0 1 5.262 12.53v.351a17.9 17.9 0 0 1-5.263 12.53A17.9 17.9 0 0 1 25 42.969a17.9 17.9 0 0 1-12.706-5.264A17.92 17.92 0 0 1 7.031 25c0-4.962 2.012-9.454 5.263-12.705A17.9 17.9 0 0 1 25 7.03m10.328 10.33c.68 0 1.342.09 1.971.256a10.26 10.26 0 0 0-7.166-2.905 10.26 10.26 0 0 0-7.277 3.013A10.26 10.26 0 0 0 19.843 25c0 2.841 1.151 5.415 3.013 7.276a10.26 10.26 0 0 0 7.277 3.014c2.786 0 5.314-1.108 7.166-2.906a7.7 7.7 0 0 1-1.97.257c-2.11 0-4.02-.855-5.403-2.238A7.62 7.62 0 0 1 27.688 25c0-2.11.855-4.021 2.238-5.404a7.6 7.6 0 0 1 5.402-2.237m3.602 4.038a5.08 5.08 0 0 0-3.603-1.491c-1.407 0-2.68.57-3.603 1.492A5.08 5.08 0 0 0 30.233 25c0 1.408.57 2.681 1.491 3.604a5.08 5.08 0 0 0 3.603 1.492 5.08 5.08 0 0 0 3.603-1.492A5.08 5.08 0 0 0 40.422 25v-.065a5.08 5.08 0 0 0-1.492-3.537m-8.798-9.234c1.6 0 3.131.293 4.545.828A15.36 15.36 0 0 0 25 9.578a15.38 15.38 0 0 0-10.906 4.517A15.38 15.38 0 0 0 9.577 25c0 4.26 1.726 8.115 4.517 10.906A15.38 15.38 0 0 0 25 40.422a15.36 15.36 0 0 0 9.677-3.413 12.8 12.8 0 0 1-4.545.828 12.8 12.8 0 0 1-9.077-3.76A12.8 12.8 0 0 1 17.295 25a12.8 12.8 0 0 1 3.76-9.077 12.8 12.8 0 0 1 9.077-3.76" clip-rule="evenodd"/></g></g><defs><linearGradient id="c" x1="-.392" x2="48.791" y1="49.098" y2="2.421" gradientUnits="userSpaceOnUse"><stop stop-color="#04BF77"/><stop offset=".612" stop-color="#04D082"/><stop offset="1" stop-color="#04D484"/></linearGradient><clipPath id="a"><path fill="#fff" d="M0 0h50v50H0z"/></clipPath></defs></svg>
